packages/ffe-icons/icons/filled/sm/step_out.svg

<svg xmlns="http://www.w3.org/2000/svg" height="20" viewBox="0 -960 960 960" width="20"><path d="M480.045-106.001q-45.814 0-77.929-32.07t-32.115-77.884q0-45.814 32.07-77.929t77.884-32.115q45.814 0 77.929 32.07t32.115 77.884q0 45.814-32.07 77.929t-77.884 32.115Zm-26.044-633.846-97.309 96.924q-8.308 8.308-17.884 7.423-9.577-.885-17.567-8.807-8.24-8.18-8.24-18.32 0-10.141 8.094-18.236L457.693-817.46q9.482-9.846 22.125-9.846t22.489 9.846l137.385 137.384q7.923 7.923 8.307 18.077.385 10.153-7.923 18.554-7.922 7.83-18.576 7.445-10.654-.385-18.576-8.307l-96.925-95.925v306.233q0 11.049-7.418 18.524Q491.163-408 480.197-408q-10.966 0-18.581-7.475t-7.615-18.524v-305.848Z"/></svg>

<svg xmlns="http://www.w3.org/2000/svg" height="20" viewBox="0 -960 960 960" width="20"><path d="M480.05-106q-45.82 0-77.93-32.07Q370-170.14 370-215.95q0-45.82 32.07-77.93Q434.14-326 479.95-326q45.82 0 77.93 32.07Q590-261.86 590-216.05q0 45.82-32.07 77.93Q525.86-106 480.05-106ZM454-739.85l-97.31 96.93q-8.31 8.3-17.88 7.42-9.58-.88-17.57-8.81-8.24-8.18-8.24-18.32t8.1-18.23l136.59-136.6q9.48-9.85 22.13-9.85 12.64 0 22.49 9.85l137.38 137.38q7.92 7.93 8.31 18.08.38 10.15-7.92 18.56-7.93 7.82-18.58 7.44-10.65-.38-18.58-8.31L506-740.23V-434q0 11.05-7.42 18.53-7.42 7.47-18.38 7.47-10.97 0-18.58-7.47Q454-422.95 454-434v-305.85Z"/></svg>
